icons/svg/food/food_court.svg

<svg width="580" height="580" viewBox="0 0 580 580" fill="none" xmlns="http://www.w3.org/2000/svg">
<g clip-path="url(#clip0)">
<path d="M66.2751 1.76815C24.9401 1.76815 1.7041 23.1391 1.7041 66.8041V516.927C1.7041 557.771 22.5991 579.156 63.8961 579.156H515.92C557.227 579.156 578.149 558.841 578.149 516.927V66.8041C578.149 24.2031 557.227 1.76815 514.628 1.76815C514.624 1.76815 66.1331 1.62515 66.2751 1.76815Z" fill="#111111" stroke="#EEEEEE" stroke-width="3.408"/>
<path d="M478.677 101.323C428.278 50.9259 361.272 23.1709 290 23.1709C218.727 23.1709 151.72 50.9259 101.323 101.323C50.9259 151.721 23.1709 218.728 23.1709 290C23.1709 361.272 50.9259 428.279 101.323 478.677C151.72 529.074 218.727 556.829 290 556.829C361.272 556.829 428.278 529.075 478.677 478.677C529.074 428.28 556.829 361.273 556.829 290C556.829 218.727 529.074 151.721 478.677 101.323V101.323ZM290 533.363C155.809 533.363 46.6379 424.19 46.6379 290C46.6379 155.81 155.809 46.6379 290 46.6379C424.19 46.6379 533.363 155.81 533.363 290C533.363 424.19 424.19 533.363 290 533.363Z" fill="white"/>
<path d="M212.25 101.481C195.106 101.481 161.991 144.928 161.991 184.618C161.991 216.559 176.57 243.618 196.727 252.972L192.555 478.517H231.944L227.772 252.972C247.93 243.618 262.507 216.559 262.507 184.618C262.508 144.929 229.396 101.481 212.25 101.481V101.481Z" fill="white"/>
<path d="M418.009 215.714L412.771 107.105C412.771 105.03 411.087 103.347 409.012 103.347H406.545C404.47 103.347 402.788 105.03 402.788 107.105L404.532 215.714H393.684L390.936 106.047C390.936 103.972 389.252 102.29 387.177 102.29H383.967C381.892 102.29 380.21 103.972 380.21 106.047L381.694 215.714H368.234L369.718 106.047C369.718 103.972 368.037 102.29 365.961 102.29H362.751C360.676 102.29 358.992 103.972 358.992 106.047L356.244 215.714H345.624L347.368 107.118C347.368 105.043 345.687 103.361 343.612 103.361H341.144C339.069 103.361 337.385 105.044 337.385 107.118L331.938 215.714C331.938 247.655 339.283 259.685 359.44 269.038L355.268 478.518H394.656L390.487 269.038C410.646 259.684 418.009 247.656 418.009 215.714Z" fill="white"/>
</g>
<defs>
<clipPath id="clip0">
<path d="M0 0H580V580H0V0Z" fill="white"/>
</clipPath>
</defs>
</svg>

<?xml version="1.0" encoding="UTF-8" standalone="no"?>
<!-- Created with Inkscape (http://www.inkscape.org/) -->

<svg
   xmlns:dc="http://purl.org/dc/elements/1.1/"
   xmlns:cc="http://creativecommons.org/ns#"
   xmlns:rdf="http://www.w3.org/1999/02/22-rdf-syntax-ns#"
   xmlns:svg="http://www.w3.org/2000/svg"
   xmlns="http://www.w3.org/2000/svg"
   xmlns:sodipodi="http://sodipodi.sourceforge.net/DTD/sodipodi-0.dtd"
   xmlns:inkscape="http://www.inkscape.org/namespaces/inkscape"
   version="1.0"
   width="580"
   height="580"
   id="svg2"
   sodipodi:version="0.32"
   inkscape:version="0.91 r"
   sodipodi:docname="food_court.svg"
   inkscape:output_extension="org.inkscape.output.svg.inkscape">
  <metadata
     id="metadata2975">
    <rdf:RDF>
      <cc:Work
         rdf:about="">
        <dc:format>image/svg+xml</dc:format>
        <dc:type
           rdf:resource="http://purl.org/dc/dcmitype/StillImage" />
        <cc:license
           rdf:resource="http://web.resource.org/cc/PublicDomain" />
        <dc:language>en</dc:language>
      </cc:Work>
    </rdf:RDF>
  </metadata>
  <sodipodi:namedview
     inkscape:window-height="1004"
     inkscape:window-width="1920"
     inkscape:pageshadow="2"
     inkscape:pageopacity="0.0"
     guidetolerance="10.0"
     gridtolerance="10.0"
     objecttolerance="10.0"
     borderopacity="1.0"
     bordercolor="#666666"
     pagecolor="#ffffff"
     id="base"
     inkscape:zoom="0.92167712"
     inkscape:cx="383.75313"
     inkscape:cy="325.54404"
     inkscape:window-x="1680"
     inkscape:window-y="0"
     inkscape:current-layer="svg2"
     showgrid="false"
     inkscape:window-maximized="1" />
  <defs
     id="defs4">
    <inkscape:perspective
       sodipodi:type="inkscape:persp3d"
       inkscape:vp_x="0 : 290 : 1"
       inkscape:vp_y="0 : 1000 : 0"
       inkscape:vp_z="580 : 290 : 1"
       inkscape:persp3d-origin="290 : 193.33333 : 1"
       id="perspective2441" />
    <inkscape:perspective
       id="perspective3452"
       inkscape:persp3d-origin="30 : 20 : 1"
       inkscape:vp_z="60 : 30 : 1"
       inkscape:vp_y="0 : 1000 : 0"
       inkscape:vp_x="0 : 30 : 1"
       sodipodi:type="inkscape:persp3d" />
    <symbol
       viewBox="244.5 110 489 219.9"
       id="symbol-university">
      <path
         id="path4460"
         d="M79,43l57,119c0,0,21-96,104-96s124,106,124,106l43-133l82-17L0,17L79,43z" />
      <path
         id="path4462"
         d="M94,176l-21,39"
         stroke-width="20"
         stroke="#000000"
         fill="none" />
      <path
         id="path4464"
         d="M300,19c0,10.5-22.6,19-50.5,19S199,29.5,199,19s22.6-19,50.5-19S300,8.5,300,19z" />
      <path
         id="path4466"
         d="M112,216l-16-38L64,88c0,0-9-8-4-35s16-24,16-24"
         stroke-width="20"
         stroke="#000000"
         ill="none" />
    </symbol>
    <inkscape:perspective
       id="perspective4471"
       inkscape:persp3d-origin="372.04724 : 350.78739 : 1"
       inkscape:vp_z="744.09448 : 526.18109 : 1"
       inkscape:vp_y="0 : 1000 : 0"
       inkscape:vp_x="0 : 526.18109 : 1"
       sodipodi:type="inkscape:persp3d" />
    <inkscape:perspective
       id="perspective4668"
       inkscape:persp3d-origin="6 : 4 : 1"
       inkscape:vp_z="12 : 6 : 1"
       inkscape:vp_y="0 : 1000 : 0"
       inkscape:vp_x="0 : 6 : 1"
       sodipodi:type="inkscape:persp3d" />
  </defs>
  <g
     id="g1327">
    <path
       d="M 66.275,1.768 C 24.94,1.768 1.704,23.139 1.704,66.804 L 1.704,516.927 C 1.704,557.771 22.599,579.156 63.896,579.156 L 515.92,579.156 C 557.227,579.156 578.149,558.841 578.149,516.927 L 578.149,66.804 C 578.149,24.203 557.227,1.768 514.628,1.768 C 514.624,1.768 66.133,1.625 66.275,1.768 z "
       style="fill:#111;stroke:#eee;stroke-width:3.40799999"
       id="path1329" />
  </g>
  <g
     id="g7"
     inkscape:version="0.46"
     sodipodi:docname="waste_bin.svg"
     sodipodi:version="0.32"
     inkscape:output_extension="org.inkscape.output.svg.inkscape">
    <g
       id="g9">
      <path
         style="fill:#ffffff"
         inkscape:connector-curvature="0"
         d="M 478.677,101.323 C 428.278,50.926 361.272,23.171 290,23.171 218.727,23.171 151.72,50.926 101.323,101.323 50.926,151.721 23.171,218.728 23.171,290 c 0,71.272 27.755,138.279 78.152,188.677 50.397,50.397 117.404,78.152 188.677,78.152 71.272,0 138.278,-27.754 188.677,-78.152 50.397,-50.397 78.152,-117.404 78.152,-188.677 0,-71.273 -27.755,-138.279 -78.152,-188.677 z M 290,533.363 C 155.809,533.363 46.638,424.19 46.638,290 46.638,155.81 155.809,46.638 290,46.638 424.19,46.638 533.363,155.81 533.363,290 533.363,424.19 424.19,533.363 290,533.363 Z"
         id="path11" />
    </g>
    <g
       id="g13">
      <path
         style="fill:#ffffff"
         inkscape:connector-curvature="0"
         d="m 212.25,101.481 c -17.144,0 -50.259,43.447 -50.259,83.137 0,31.941 14.579,59 34.736,68.354 l -4.172,225.545 39.389,0 -4.172,-225.545 c 20.158,-9.354 34.735,-36.413 34.735,-68.354 10e-4,-39.689 -33.111,-83.137 -50.257,-83.137 z"
         id="path15" />
      <path
         style="fill:#ffffff"
         inkscape:connector-curvature="0"
         d="m 418.009,215.714 -5.238,-108.609 c 0,-2.075 -1.684,-3.758 -3.759,-3.758 l -2.467,0 c -2.075,0 -3.757,1.683 -3.757,3.758 l 1.744,108.609 -10.848,0 -2.748,-109.667 c 0,-2.075 -1.684,-3.757 -3.759,-3.757 l -3.21,0 c -2.075,0 -3.757,1.682 -3.757,3.757 l 1.484,109.667 -13.46,0 1.484,-109.667 c 0,-2.075 -1.681,-3.757 -3.757,-3.757 l -3.21,0 c -2.075,0 -3.759,1.682 -3.759,3.757 l -2.748,109.667 -10.62,0 1.744,-108.596 c 0,-2.075 -1.681,-3.757 -3.756,-3.757 l -2.468,0 c -2.075,0 -3.759,1.683 -3.759,3.757 l -5.447,108.596 c 0,31.941 7.345,43.971 27.502,53.324 l -4.172,209.48 39.388,0 -4.169,-209.48 c 20.159,-9.354 27.522,-21.382 27.522,-53.324 z"
         id="path17" />
    </g>
  </g>
</svg>
